svg/share_outline.svg

<svg xmlns="http://www.w3.org/2000/svg" viewBox="0 0 24 24"><path d="M14 5v4C7 10 4 15 3 20c2.5-3.5 6-5.1 11-5.1V19l7-7zm2 4.83L18.17 12 16 14.17V12.9h-2c-2.07 0-3.93.38-5.66.95 1.4-1.39 3.2-2.48 5.94-2.85l1.72-.27z"/></svg>

<?xml version="1.0" encoding="UTF-8"?><!DOCTYPE svg PUBLIC "-//W3C//DTD SVG 1.1//EN" "http://www.w3.org/Graphics/SVG/1.1/DTD/svg11.dtd"><svg xmlns="http://www.w3.org/2000/svg" xmlns:xlink="http://www.w3.org/1999/xlink" version="1.1" id="mdi-share-outline" width="24" height="24" viewBox="0 0 24 24"><path d="M14,5V9C7,10 4,15 3,20C5.5,16.5 9,14.9 14,14.9V19L21,12L14,5M16,9.83L18.17,12L16,14.17V12.9H14C11.93,12.9 10.07,13.28 8.34,13.85C9.74,12.46 11.54,11.37 14.28,11L16,10.73V9.83Z" /></svg>
